X: 3930
T: Blackbird, The
R: slide
M: 12/8
K: Gmajor
|:DEF|G2 G g2 f g3 de=f|e2 d c2 B c3 c2 B|
c>Bc ABc B2 A GBc|d2 G F2 G A3:|
|:ABc|d2 G GG/A/B A2 F D2 F|G2 B d2 c B3 GG/A/B|
c2 d efg d2 B G2 g|1 e2 c A2 F G3:|2 e2 c AGF G3||

